X: 21209
T: Katy Hill
R: reel
M: 4/4
K: Gmajor
|:A|Bdga bgag|egdg egdg|dega b3 a|gbag efge|
dega b3 a|gbag efga|gedB AGEG|DEGB AGG:|
|:A|BAGB AGEG|DEGA Bcdc|BAGB AGEG|DEGB AGGA|
BAGB AGEG|DEGA Bc d2|gedB AGEG|DEGB AGG:|

